icons/chevrons-down.svg

<svg width="24" height="24" viewBox="0 0 24 24" fill="none" xmlns="http://www.w3.org/2000/svg">
<path fill-rule="evenodd" clip-rule="evenodd" d="M6.29289 5.29289C6.68342 4.90237 7.31658 4.90237 7.70711 5.29289L12 9.58579L16.2929 5.29289C16.6834 4.90237 17.3166 4.90237 17.7071 5.29289C18.0976 5.68342 18.0976 6.31658 17.7071 6.70711L12.7071 11.7071C12.3166 12.0976 11.6834 12.0976 11.2929 11.7071L6.29289 6.70711C5.90237 6.31658 5.90237 5.68342 6.29289 5.29289ZM6.29289 12.2929C6.68342 11.9024 7.31658 11.9024 7.70711 12.2929L12 16.5858L16.2929 12.2929C16.6834 11.9024 17.3166 11.9024 17.7071 12.2929C18.0976 12.6834 18.0976 13.3166 17.7071 13.7071L12.7071 18.7071C12.3166 19.0976 11.6834 19.0976 11.2929 18.7071L6.29289 13.7071C5.90237 13.3166 5.90237 12.6834 6.29289 12.2929Z" fill="black"/>
</svg>

<svg
  width="24"
  height="24"
  viewBox="0 0 24 24"
  xmlns="http://www.w3.org/2000/svg"
>
  <path
    fill-rule="evenodd"
    clip-rule="evenodd"
    d="M6.293 5.293a1 1 0 0 1 1.414 0L12 9.586l4.293-4.293a1 1 0 1 1 1.414 1.414l-5 5a1 1 0 0 1-1.414 0l-5-5a1 1 0 0 1 0-1.414zm0 7a1 1 0 0 1 1.414 0L12 16.586l4.293-4.293a1 1 0 0 1 1.414 1.414l-5 5a1 1 0 0 1-1.414 0l-5-5a1 1 0 0 1 0-1.414z"
  />
</svg>
